X: 18590
T: I Rowed Up In A Dory
R: reel
M: 4/4
K: Dmajor
de|:fddc BAFG|ABAF A2de|fddc BAB/c/d|eBcd e2de|
fddc BAFG|ABAF A2de|fdfa geBc|1 d2dc dcde:|2 d2dc defg||
|:afab afde|fdfe f2de|fdfe faaf|feef e2de|
fddc BAFG|ABAF A2de|fdfa geBc|1 d2dc defg:|2 d2dc dcde||

